app/dist/common/images/patriot-transportation.svg

<svg fill="none" height="18" width="18" xmlns="http://www.w3.org/2000/svg"><path d="m0 0h18v18h-18z" fill="#f0f3fa"/><path d="m5 13v-8l10.5 4z" fill="#cf0033"/><path d="m5 9.5h9.188l-3.938 1.5h-5.25z" fill="#343394"/><g fill="#f0f3fa"><path clip-rule="evenodd" d="m15.5 9h-10.5v.5h9.203zm-10.5 2h5.281l-1.297.5h-3.984z" fill-rule="evenodd"/><path d="m7.48 7.755c-.041-.009-.114-.09-.114-.09l.095.366c.332.066.942.12.979-.357.003-.046.005-.093.003-.14 0-.568-.332-1.133-.565-1.194h-.692s.077.288.17.288h.167c.088.002.194-.022.287.067.185.177.274.522.274.803a.461.461 0 0 1 -.027.2c-.054.087-.14.071-.18.079 0 0-.284 0-.396-.022zm-1.48-1.415h1v2.955h-1z"/></g></svg>

<!-- by TradingView --><svg width="18" height="18" fill="none" xmlns="http://www.w3.org/2000/svg"><path fill="#F0F3FA" d="M0 0h18v18H0z"/><path d="M5 13V5l10.5 4L5 13z" fill="#CF0033"/><path d="M5 9.5h9.188L10.25 11H5V9.5z" fill="#343394"/><path fill-rule="evenodd" clip-rule="evenodd" d="M15.5 9H5v.5h9.203L15.5 9zM5 11h5.281l-1.297.5H5V11z" fill="#F0F3FA"/><path d="M7.48 7.755c-.041-.009-.114-.09-.114-.09l.095.366c.332.066.942.12.979-.357.003-.046.005-.093.003-.14 0-.568-.332-1.133-.565-1.194h-.692s.077.288.17.288h.167c.088.002.194-.022.287.067.185.177.274.522.274.803a.461.461 0 01-.027.2c-.054.087-.14.071-.18.079 0 0-.284 0-.396-.022zM6 6.34h1v2.955H6z" fill="#F0F3FA"/></svg>
